src/assets/images/Group 6.svg

<svg width="232" height="103" viewBox="0 0 232 103" fill="none" xmlns="http://www.w3.org/2000/svg">
<g filter="url(#filter0_d)">
<path d="M228 4.99999C228 2.23857 225.761 -1.957e-07 223 -4.37111e-07L9.00002 -1.91456e-05C6.23859 -1.9387e-05 4.00002 2.23856 4.00001 4.99998L4.00001 80.9826C4.00001 83.744 6.23858 85.9826 9.00001 85.9826L123.617 85.9826C124.709 85.9826 125.77 86.3398 126.64 86.9996L135.415 93.6593C137.231 95.0373 139.75 95.0126 141.538 93.5993L149.814 87.0596C150.697 86.362 151.789 85.9826 152.914 85.9826L223 85.9826C225.761 85.9826 228 83.744 228 80.9826L228 4.99999Z" fill="#FC9B09"/>
</g>
<g filter="url(#filter1_dd)">
<circle cx="173" cy="42" r="25.5" stroke="white"/>
</g>
<path d="M164.035 43.765C162.192 43.765 160.687 43.1583 159.52 41.945C158.353 40.7317 157.77 39.075 157.77 36.975C157.77 35.5983 158.038 34.3967 158.575 33.37C159.112 32.3433 159.847 31.5617 160.78 31.025C161.737 30.465 162.822 30.185 164.035 30.185C165.902 30.185 167.418 30.8033 168.585 32.04C169.752 33.2533 170.335 34.8983 170.335 36.975C170.335 39.075 169.752 40.7317 168.585 41.945C167.418 43.1583 165.902 43.765 164.035 43.765ZM178.525 30.5H183.565L166.835 55H161.795L178.525 30.5ZM164.035 40.44C164.665 40.44 165.167 40.16 165.54 39.6C165.913 39.04 166.1 38.165 166.1 36.975C166.1 35.785 165.913 34.91 165.54 34.35C165.167 33.79 164.665 33.51 164.035 33.51C163.428 33.51 162.927 33.8017 162.53 34.385C162.157 34.945 161.97 35.8083 161.97 36.975C161.97 38.1417 162.157 39.0167 162.53 39.6C162.927 40.16 163.428 40.44 164.035 40.44ZM181.325 55.315C179.458 55.315 177.942 54.7083 176.775 53.495C175.632 52.2817 175.06 50.625 175.06 48.525C175.06 46.4483 175.643 44.8033 176.81 43.59C177.977 42.3533 179.482 41.735 181.325 41.735C183.192 41.735 184.708 42.3533 185.875 43.59C187.042 44.8033 187.625 46.4483 187.625 48.525C187.625 50.625 187.042 52.2817 185.875 53.495C184.708 54.7083 183.192 55.315 181.325 55.315ZM181.325 51.99C181.955 51.99 182.457 51.71 182.83 51.15C183.203 50.59 183.39 49.715 183.39 48.525C183.39 47.335 183.203 46.46 182.83 45.9C182.457 45.34 181.955 45.06 181.325 45.06C180.695 45.06 180.193 45.34 179.82 45.9C179.447 46.46 179.26 47.335 179.26 48.525C179.26 49.715 179.447 50.59 179.82 51.15C180.193 51.71 180.695 51.99 181.325 51.99Z" fill="white"/>
<path d="M38.69 43.5V68H31.76V48.855H27.21V43.5H38.69ZM51.5446 52.425C54.9746 52.425 57.5062 53.125 59.1396 54.525C60.7962 55.925 61.6246 57.7917 61.6246 60.125C61.6246 61.6417 61.2279 63.0417 60.4346 64.325C59.6646 65.585 58.4746 66.6 56.8646 67.37C55.2779 68.1167 53.3062 68.49 50.9496 68.49C49.2229 68.49 47.5079 68.28 45.8046 67.86C44.1246 67.44 42.6779 66.845 41.4646 66.075L43.9496 60.86C44.9296 61.5133 46.0029 62.015 47.1696 62.365C48.3596 62.715 49.5496 62.89 50.7396 62.89C51.9296 62.89 52.8746 62.6683 53.5746 62.225C54.2979 61.7583 54.6596 61.1167 54.6596 60.3C54.6596 59.4833 54.3096 58.865 53.6096 58.445C52.9096 58.025 51.6729 57.815 49.8996 57.815H43.2496L44.4746 43.5H60.0846V48.855H50.2146L49.8996 52.425H51.5446ZM74.4493 68.49C72.3493 68.49 70.4827 67.9883 68.8493 66.985C67.216 65.9817 65.9327 64.5233 64.9993 62.61C64.0893 60.6733 63.6343 58.3867 63.6343 55.75C63.6343 53.1133 64.0893 50.8383 64.9993 48.925C65.9327 46.9883 67.216 45.5183 68.8493 44.515C70.4827 43.5117 72.3493 43.01 74.4493 43.01C76.526 43.01 78.381 43.5117 80.0143 44.515C81.6477 45.5183 82.9193 46.9883 83.8293 48.925C84.7627 50.8383 85.2293 53.1133 85.2293 55.75C85.2293 58.3867 84.7627 60.6733 83.8293 62.61C82.9193 64.5233 81.6477 65.9817 80.0143 66.985C78.381 67.9883 76.526 68.49 74.4493 68.49ZM74.4493 62.82C75.616 62.82 76.5377 62.26 77.2143 61.14C77.9143 59.9967 78.2643 58.2 78.2643 55.75C78.2643 53.3 77.9143 51.515 77.2143 50.395C76.5377 49.2517 75.616 48.68 74.4493 48.68C73.2593 48.68 72.3143 49.2517 71.6143 50.395C70.9377 51.515 70.5993 53.3 70.5993 55.75C70.5993 58.2 70.9377 59.9967 71.6143 61.14C72.3143 62.26 73.2593 62.82 74.4493 62.82ZM98.4093 68.49C96.3093 68.49 94.4426 67.9883 92.8093 66.985C91.176 65.9817 89.8926 64.5233 88.9593 62.61C88.0493 60.6733 87.5943 58.3867 87.5943 55.75C87.5943 53.1133 88.0493 50.8383 88.9593 48.925C89.8926 46.9883 91.176 45.5183 92.8093 44.515C94.4426 43.5117 96.3093 43.01 98.4093 43.01C100.486 43.01 102.341 43.5117 103.974 44.515C105.608 45.5183 106.879 46.9883 107.789 48.925C108.723 50.8383 109.189 53.1133 109.189 55.75C109.189 58.3867 108.723 60.6733 107.789 62.61C106.879 64.5233 105.608 65.9817 103.974 66.985C102.341 67.9883 100.486 68.49 98.4093 68.49ZM98.4093 62.82C99.576 62.82 100.498 62.26 101.174 61.14C101.874 59.9967 102.224 58.2 102.224 55.75C102.224 53.3 101.874 51.515 101.174 50.395C100.498 49.2517 99.576 48.68 98.4093 48.68C97.2193 48.68 96.2743 49.2517 95.5743 50.395C94.8976 51.515 94.5593 53.3 94.5593 55.75C94.5593 58.2 94.8976 59.9967 95.5743 61.14C96.2743 62.26 97.2193 62.82 98.4093 62.82ZM121.634 60.09V61.945H129.089V65.34H121.634V68H114.669V65.34H111.414V61.945H114.669V43.5H125.869C129.299 43.5 131.971 44.2 133.884 45.6C135.798 47 136.754 49.065 136.754 51.795C136.754 54.525 135.798 56.59 133.884 57.99C131.971 59.39 129.299 60.09 125.869 60.09H121.634ZM129.754 51.865C129.754 50.9317 129.404 50.22 128.704 49.73C128.028 49.2167 127.059 48.96 125.799 48.96H121.634V54.805H125.799C127.059 54.805 128.028 54.5483 128.704 54.035C129.404 53.5217 129.754 52.7983 129.754 51.865Z" fill="white"/>
<path d="M34.48 30.12C33.0933 30.12 31.84 29.8133 30.72 29.2C29.6133 28.5867 28.74 27.74 28.1 26.66C27.4733 25.5667 27.16 24.3467 27.16 23C27.16 21.6533 27.4733 20.44 28.1 19.36C28.74 18.2667 29.62 17.4133 30.74 16.8C31.86 16.1867 33.1133 15.88 34.5 15.88C35.54 15.88 36.5 16.0533 37.38 16.4C38.26 16.7467 39.0067 17.2533 39.62 17.92L38.68 18.86C37.5867 17.7533 36.2067 17.2 34.54 17.2C33.4333 17.2 32.4267 17.4533 31.52 17.96C30.6133 18.4667 29.9 19.16 29.38 20.04C28.8733 20.92 28.62 21.9067 28.62 23C28.62 24.0933 28.8733 25.08 29.38 25.96C29.9 26.84 30.6133 27.5333 31.52 28.04C32.4267 28.5467 33.4333 28.8 34.54 28.8C36.22 28.8 37.6 28.24 38.68 27.12L39.62 28.06C39.0067 28.7267 38.2533 29.24 37.36 29.6C36.48 29.9467 35.52 30.12 34.48 30.12ZM49.4434 20.74H45.4634V30H44.0434V20.74H40.0634V19.48H49.4434V20.74ZM55.3483 30.1C54.3349 30.1 53.4216 29.8733 52.6083 29.42C51.7949 28.9533 51.1549 28.3133 50.6883 27.5C50.2216 26.6867 49.9883 25.7667 49.9883 24.74C49.9883 23.7133 50.2216 22.7933 50.6883 21.98C51.1549 21.1667 51.7949 20.5333 52.6083 20.08C53.4216 19.6267 54.3349 19.4 55.3483 19.4C56.3616 19.4 57.2749 19.6267 58.0883 20.08C58.9016 20.5333 59.5349 21.1667 59.9883 21.98C60.4549 22.7933 60.6883 23.7133 60.6883 24.74C60.6883 25.7667 60.4549 26.6867 59.9883 27.5C59.5349 28.3133 58.9016 28.9533 58.0883 29.42C57.2749 29.8733 56.3616 30.1 55.3483 30.1ZM55.3483 28.84C56.0949 28.84 56.7616 28.6733 57.3483 28.34C57.9483 27.9933 58.4149 27.5067 58.7483 26.88C59.0816 26.2533 59.2483 25.54 59.2483 24.74C59.2483 23.94 59.0816 23.2267 58.7483 22.6C58.4149 21.9733 57.9483 21.4933 57.3483 21.16C56.7616 20.8133 56.0949 20.64 55.3483 20.64C54.6016 20.64 53.9283 20.8133 53.3283 21.16C52.7416 21.4933 52.2749 21.9733 51.9283 22.6C51.5949 23.2267 51.4283 23.94 51.4283 24.74C51.4283 25.54 51.5949 26.2533 51.9283 26.88C52.2749 27.5067 52.7416 27.9933 53.3283 28.34C53.9283 28.6733 54.6016 28.84 55.3483 28.84ZM63.7231 19.48H65.1431V27.84L72.1631 19.48H73.4231V30H72.0031V21.64L65.0031 30H63.7231V19.48ZM89.2527 19.48V30H87.9527V21.68L83.6927 28.72H83.0527L78.7927 21.66V30H77.4927V19.48H78.9327L83.3927 27.06L87.9327 19.48H89.2527ZM97.6334 30.1C96.6201 30.1 95.7068 29.8733 94.8934 29.42C94.0801 28.9533 93.4401 28.3133 92.9734 27.5C92.5068 26.6867 92.2734 25.7667 92.2734 24.74C92.2734 23.7133 92.5068 22.7933 92.9734 21.98C93.4401 21.1667 94.0801 20.5333 94.8934 20.08C95.7068 19.6267 96.6201 19.4 97.6334 19.4C98.6468 19.4 99.5601 19.6267 100.373 20.08C101.187 20.5333 101.82 21.1667 102.273 21.98C102.74 22.7933 102.973 23.7133 102.973 24.74C102.973 25.7667 102.74 26.6867 102.273 27.5C101.82 28.3133 101.187 28.9533 100.373 29.42C99.5601 29.8733 98.6468 30.1 97.6334 30.1ZM97.6334 28.84C98.3801 28.84 99.0468 28.6733 99.6334 28.34C100.233 27.9933 100.7 27.5067 101.033 26.88C101.367 26.2533 101.533 25.54 101.533 24.74C101.533 23.94 101.367 23.2267 101.033 22.6C100.7 21.9733 100.233 21.4933 99.6334 21.16C99.0468 20.8133 98.3801 20.64 97.6334 20.64C96.8868 20.64 96.2134 20.8133 95.6134 21.16C95.0268 21.4933 94.5601 21.9733 94.2134 22.6C93.8801 23.2267 93.7134 23.94 93.7134 24.74C93.7134 25.54 93.8801 26.2533 94.2134 26.88C94.5601 27.5067 95.0268 27.9933 95.6134 28.34C96.2134 28.6733 96.8868 28.84 97.6334 28.84ZM110.408 30.1C109.368 30.1 108.435 29.8733 107.608 29.42C106.795 28.9667 106.155 28.3333 105.688 27.52C105.222 26.6933 104.988 25.7667 104.988 24.74C104.988 23.7133 105.222 22.7933 105.688 21.98C106.155 21.1667 106.795 20.5333 107.608 20.08C108.435 19.6267 109.368 19.4 110.408 19.4C111.315 19.4 112.122 19.58 112.828 19.94C113.548 20.2867 114.115 20.8 114.528 21.48L113.468 22.2C113.122 21.68 112.682 21.2933 112.148 21.04C111.615 20.7733 111.035 20.64 110.408 20.64C109.648 20.64 108.962 20.8133 108.348 21.16C107.748 21.4933 107.275 21.9733 106.928 22.6C106.595 23.2267 106.428 23.94 106.428 24.74C106.428 25.5533 106.595 26.2733 106.928 26.9C107.275 27.5133 107.748 27.9933 108.348 28.34C108.962 28.6733 109.648 28.84 110.408 28.84C111.035 28.84 111.615 28.7133 112.148 28.46C112.682 28.2067 113.122 27.82 113.468 27.3L114.528 28.02C114.115 28.7 113.548 29.22 112.828 29.58C112.108 29.9267 111.302 30.1 110.408 30.1ZM124.483 20.74H120.503V30H119.083V20.74H115.103V19.48H124.483V20.74ZM131.056 23.2C132.376 23.2133 133.376 23.5067 134.056 24.08C134.749 24.6533 135.096 25.48 135.096 26.56C135.096 27.68 134.722 28.54 133.976 29.14C133.242 29.74 132.176 30.0333 130.776 30.02L126.536 30V19.48H127.956V23.16L131.056 23.2ZM130.696 28.94C131.669 28.9533 132.402 28.76 132.896 28.36C133.402 27.9467 133.656 27.3467 133.656 26.56C133.656 25.7867 133.409 25.2133 132.916 24.84C132.422 24.4667 131.682 24.2733 130.696 24.26L127.956 24.22V28.9L130.696 28.94ZM137.905 21.58C137.612 21.58 137.358 21.4733 137.145 21.26C136.945 21.0467 136.845 20.7867 136.845 20.48C136.845 20.1733 136.945 19.92 137.145 19.72C137.358 19.5067 137.612 19.4 137.905 19.4C138.198 19.4 138.452 19.5067 138.665 19.72C138.878 19.92 138.985 20.1733 138.985 20.48C138.985 20.7867 138.878 21.0467 138.665 21.26C138.452 21.4733 138.198 21.58 137.905 21.58ZM137.905 30.1C137.612 30.1 137.358 29.9933 137.145 29.78C136.945 29.5667 136.845 29.3067 136.845 29C136.845 28.6933 136.945 28.44 137.145 28.24C137.358 28.0267 137.612 27.92 137.905 27.92C138.198 27.92 138.452 28.0267 138.665 28.24C138.878 28.44 138.985 28.6933 138.985 29C138.985 29.3067 138.878 29.5667 138.665 29.78C138.452 29.9933 138.198 30.1 137.905 30.1Z" fill="white"/>
<defs>
<filter id="filter0_d" x="0" y="0" width="232" height="102.676" filterUnits="userSpaceOnUse" color-interpolation-filters="sRGB">
<feFlood flood-opacity="0" result="BackgroundImageFix"/>
<feColorMatrix in="SourceAlpha" type="matrix" values="0 0 0 0 0 0 0 0 0 0 0 0 0 0 0 0 0 0 127 0" result="hardAlpha"/>
<feOffset dy="4"/>
<feGaussianBlur stdDeviation="2"/>
<feColorMatrix type="matrix" values="0 0 0 0 0 0 0 0 0 0 0 0 0 0 0 0 0 0 0.1 0"/>
<feBlend mode="normal" in2="BackgroundImageFix" result="effect1_dropShadow"/>
<feBlend mode="normal" in="SourceGraphic" in2="effect1_dropShadow" result="shape"/>
</filter>
<filter id="filter1_dd" x="132" y="5" width="82" height="82" filterUnits="userSpaceOnUse" color-interpolation-filters="sRGB">
<feFlood flood-opacity="0" result="BackgroundImageFix"/>
<feColorMatrix in="SourceAlpha" type="matrix" values="0 0 0 0 0 0 0 0 0 0 0 0 0 0 0 0 0 0 127 0" result="hardAlpha"/>
<feOffset dy="4"/>
<feGaussianBlur stdDeviation="2"/>
<feColorMatrix type="matrix" values="0 0 0 0 1 0 0 0 0 1 0 0 0 0 1 0 0 0 0.25 0"/>
<feBlend mode="normal" in2="BackgroundImageFix" result="effect1_dropShadow"/>
<feColorMatrix in="SourceAlpha" type="matrix" values="0 0 0 0 0 0 0 0 0 0 0 0 0 0 0 0 0 0 127 0" result="hardAlpha"/>
<feOffset dy="4"/>
<feGaussianBlur stdDeviation="7.5"/>
<feColorMatrix type="matrix" values="0 0 0 0 1 0 0 0 0 1 0 0 0 0 1 0 0 0 0.25 0"/>
<feBlend mode="normal" in2="effect1_dropShadow" result="effect2_dropShadow"/>
<feBlend mode="normal" in="SourceGraphic" in2="effect2_dropShadow" result="shape"/>
</filter>
</defs>
</svg>

<svg width="232" height="103" fill="none" xmlns="http://www.w3.org/2000/svg"><g filter="url(#filter0_d)"><path d="M228 5a5 5 0 00-5-5H9a5 5 0 00-5 5v75.983a5 5 0 005 5h114.617A5 5 0 01126.64 87l8.775 6.66a5 5 0 006.123-.06l8.276-6.54a5 5 0 013.1-1.077H223a5 5 0 005-5V5z" fill="#FC9B09"/></g><g filter="url(#filter1_dd)"><circle cx="173" cy="42" r="25.5" stroke="#fff"/></g><path d="M164.035 43.765c-1.843 0-3.348-.607-4.515-1.82-1.167-1.213-1.75-2.87-1.75-4.97 0-1.377.268-2.578.805-3.605.537-1.027 1.272-1.808 2.205-2.345.957-.56 2.042-.84 3.255-.84 1.867 0 3.383.618 4.55 1.855 1.167 1.213 1.75 2.858 1.75 4.935 0 2.1-.583 3.757-1.75 4.97-1.167 1.213-2.683 1.82-4.55 1.82zm14.49-13.265h5.04L166.835 55h-5.04l16.73-24.5zm-14.49 9.94c.63 0 1.132-.28 1.505-.84.373-.56.56-1.435.56-2.625s-.187-2.065-.56-2.625c-.373-.56-.875-.84-1.505-.84-.607 0-1.108.292-1.505.875-.373.56-.56 1.423-.56 2.59 0 1.167.187 2.042.56 2.625.397.56.898.84 1.505.84zm17.29 14.875c-1.867 0-3.383-.607-4.55-1.82-1.143-1.213-1.715-2.87-1.715-4.97 0-2.077.583-3.722 1.75-4.935 1.167-1.237 2.672-1.855 4.515-1.855 1.867 0 3.383.618 4.55 1.855 1.167 1.213 1.75 2.858 1.75 4.935 0 2.1-.583 3.757-1.75 4.97-1.167 1.213-2.683 1.82-4.55 1.82zm0-3.325c.63 0 1.132-.28 1.505-.84.373-.56.56-1.435.56-2.625s-.187-2.065-.56-2.625c-.373-.56-.875-.84-1.505-.84-.63 0-1.132.28-1.505.84-.373.56-.56 1.435-.56 2.625s.187 2.065.56 2.625c.373.56.875.84 1.505.84zM38.69 43.5V68h-6.93V48.855h-4.55V43.5h11.48zm12.855 8.925c3.43 0 5.961.7 7.595 2.1 1.656 1.4 2.485 3.267 2.485 5.6a7.837 7.837 0 01-1.19 4.2c-.77 1.26-1.96 2.275-3.57 3.045-1.587.747-3.559 1.12-5.915 1.12-1.727 0-3.442-.21-5.145-.63-1.68-.42-3.127-1.015-4.34-1.785l2.485-5.215c.98.653 2.053 1.155 3.22 1.505 1.19.35 2.38.525 3.57.525s2.135-.222 2.835-.665c.723-.467 1.085-1.108 1.085-1.925s-.35-1.435-1.05-1.855c-.7-.42-1.937-.63-3.71-.63h-6.65L44.475 43.5h15.61v5.355h-9.87l-.315 3.57h1.645zM74.449 68.49c-2.1 0-3.966-.502-5.6-1.505-1.633-1.003-2.916-2.462-3.85-4.375-.91-1.937-1.365-4.223-1.365-6.86 0-2.637.455-4.912 1.365-6.825.934-1.937 2.217-3.407 3.85-4.41 1.634-1.003 3.5-1.505 5.6-1.505 2.077 0 3.932.502 5.565 1.505 1.634 1.003 2.905 2.473 3.815 4.41.934 1.913 1.4 4.188 1.4 6.825 0 2.637-.466 4.923-1.4 6.86-.91 1.913-2.181 3.372-3.815 4.375-1.633 1.003-3.488 1.505-5.565 1.505zm0-5.67c1.167 0 2.089-.56 2.765-1.68.7-1.143 1.05-2.94 1.05-5.39 0-2.45-.35-4.235-1.05-5.355-.676-1.143-1.598-1.715-2.765-1.715-1.19 0-2.135.572-2.835 1.715-.676 1.12-1.015 2.905-1.015 5.355 0 2.45.339 4.247 1.015 5.39.7 1.12 1.645 1.68 2.835 1.68zm23.96 5.67c-2.1 0-3.966-.502-5.6-1.505-1.633-1.003-2.916-2.462-3.85-4.375-.91-1.937-1.365-4.223-1.365-6.86 0-2.637.455-4.912 1.365-6.825.934-1.937 2.217-3.407 3.85-4.41 1.634-1.003 3.5-1.505 5.6-1.505 2.077 0 3.932.502 5.565 1.505 1.634 1.003 2.905 2.473 3.815 4.41.934 1.913 1.4 4.188 1.4 6.825 0 2.637-.466 4.923-1.4 6.86-.91 1.913-2.181 3.372-3.815 4.375-1.633 1.003-3.488 1.505-5.565 1.505zm0-5.67c1.167 0 2.089-.56 2.765-1.68.7-1.143 1.05-2.94 1.05-5.39 0-2.45-.35-4.235-1.05-5.355-.676-1.143-1.598-1.715-2.765-1.715-1.19 0-2.135.572-2.835 1.715-.676 1.12-1.015 2.905-1.015 5.355 0 2.45.339 4.247 1.015 5.39.7 1.12 1.645 1.68 2.835 1.68zm23.225-2.73v1.855h7.455v3.395h-7.455V68h-6.965v-2.66h-3.255v-3.395h3.255V43.5h11.2c3.43 0 6.102.7 8.015 2.1 1.914 1.4 2.87 3.465 2.87 6.195 0 2.73-.956 4.795-2.87 6.195-1.913 1.4-4.585 2.1-8.015 2.1h-4.235zm8.12-8.225c0-.933-.35-1.645-1.05-2.135-.676-.513-1.645-.77-2.905-.77h-4.165v5.845h4.165c1.26 0 2.229-.257 2.905-.77.7-.513 1.05-1.237 1.05-2.17zM34.48 30.12c-1.387 0-2.64-.307-3.76-.92a6.85 6.85 0 01-2.62-2.54c-.627-1.093-.94-2.313-.94-3.66s.313-2.56.94-3.64a6.769 6.769 0 012.64-2.56c1.12-.613 2.373-.92 3.76-.92 1.04 0 2 .173 2.88.52a5.97 5.97 0 012.24 1.52l-.94.94c-1.093-1.107-2.473-1.66-4.14-1.66-1.107 0-2.113.253-3.02.76a5.627 5.627 0 00-2.14 2.08c-.507.88-.76 1.867-.76 2.96s.253 2.08.76 2.96a5.627 5.627 0 002.14 2.08c.907.507 1.913.76 3.02.76 1.68 0 3.06-.56 4.14-1.68l.94.94a6.14 6.14 0 01-2.26 1.54c-.88.347-1.84.52-2.88.52zm14.963-9.38h-3.98V30h-1.42v-9.26h-3.98v-1.26h9.38v1.26zm5.905 9.36c-1.013 0-1.926-.227-2.74-.68a5.104 5.104 0 01-1.92-1.92c-.466-.813-.7-1.733-.7-2.76 0-1.027.234-1.947.7-2.76a4.96 4.96 0 011.92-1.9c.814-.453 1.727-.68 2.74-.68 1.014 0 1.927.227 2.74.68a4.823 4.823 0 011.9 1.9c.467.813.7 1.733.7 2.76 0 1.027-.233 1.947-.7 2.76a4.962 4.962 0 01-1.9 1.92c-.813.453-1.726.68-2.74.68zm0-1.26c.747 0 1.414-.167 2-.5a3.604 3.604 0 001.4-1.46c.334-.627.5-1.34.5-2.14s-.166-1.513-.5-2.14a3.472 3.472 0 00-1.4-1.44c-.586-.347-1.253-.52-2-.52-.746 0-1.42.173-2.02.52a3.64 3.64 0 00-1.4 1.44c-.333.627-.5 1.34-.5 2.14s.167 1.513.5 2.14a3.784 3.784 0 001.4 1.46c.6.333 1.274.5 2.02.5zm8.375-9.36h1.42v8.36l7.02-8.36h1.26V30h-1.42v-8.36l-7 8.36h-1.28V19.48zm25.53 0V30h-1.3v-8.32l-4.26 7.04h-.64l-4.26-7.06V30h-1.3V19.48h1.44l4.46 7.58 4.54-7.58h1.32zm8.38 10.62c-1.013 0-1.926-.227-2.74-.68a5.106 5.106 0 01-1.92-1.92c-.466-.813-.7-1.733-.7-2.76 0-1.027.234-1.947.7-2.76a4.961 4.961 0 011.92-1.9c.814-.453 1.727-.68 2.74-.68 1.014 0 1.927.227 2.74.68a4.816 4.816 0 011.9 1.9c.467.813.7 1.733.7 2.76 0 1.027-.233 1.947-.7 2.76a4.954 4.954 0 01-1.9 1.92c-.813.453-1.726.68-2.74.68zm0-1.26c.747 0 1.414-.167 2-.5a3.603 3.603 0 001.4-1.46c.334-.627.5-1.34.5-2.14s-.166-1.513-.5-2.14a3.471 3.471 0 00-1.4-1.44c-.586-.347-1.253-.52-2-.52-.746 0-1.42.173-2.02.52a3.64 3.64 0 00-1.4 1.44c-.333.627-.5 1.34-.5 2.14s.167 1.513.5 2.14a3.785 3.785 0 001.4 1.46c.6.333 1.274.5 2.02.5zm12.775 1.26c-1.04 0-1.973-.227-2.8-.68a4.965 4.965 0 01-1.92-1.9c-.466-.827-.7-1.753-.7-2.78s.234-1.947.7-2.76a4.965 4.965 0 011.92-1.9c.827-.453 1.76-.68 2.8-.68.907 0 1.714.18 2.42.54.72.347 1.287.86 1.7 1.54l-1.06.72a3.233 3.233 0 00-1.32-1.16 3.834 3.834 0 00-1.74-.4c-.76 0-1.446.173-2.06.52-.6.333-1.073.813-1.42 1.44-.333.627-.5 1.34-.5 2.14 0 .813.167 1.533.5 2.16a3.78 3.78 0 001.42 1.44c.614.333 1.3.5 2.06.5.627 0 1.207-.127 1.74-.38a3.23 3.23 0 001.32-1.16l1.06.72c-.413.68-.98 1.2-1.7 1.56-.72.347-1.526.52-2.42.52zm14.075-9.36h-3.98V30h-1.42v-9.26h-3.98v-1.26h9.38v1.26zm6.573 2.46c1.32.013 2.32.307 3 .88.693.573 1.04 1.4 1.04 2.48 0 1.12-.374 1.98-1.12 2.58-.734.6-1.8.893-3.2.88l-4.24-.02V19.48h1.42v3.68l3.1.04zm-.36 5.74c.973.013 1.706-.18 2.2-.58.506-.413.76-1.013.76-1.8 0-.773-.247-1.347-.74-1.72-.494-.373-1.234-.567-2.22-.58l-2.74-.04v4.68l2.74.04zm7.209-7.36a1.04 1.04 0 01-.76-.32c-.2-.213-.3-.473-.3-.78 0-.307.1-.56.3-.76.213-.213.467-.32.76-.32s.547.107.76.32c.213.2.32.453.32.76s-.107.567-.32.78a1.04 1.04 0 01-.76.32zm0 8.52a1.04 1.04 0 01-.76-.32c-.2-.213-.3-.473-.3-.78 0-.307.1-.56.3-.76.213-.213.467-.32.76-.32s.547.107.76.32c.213.2.32.453.32.76s-.107.567-.32.78a1.04 1.04 0 01-.76.32z" fill="#fff"/><defs><filter id="filter0_d" x="0" y="0" width="232" height="102.676" filterUnits="userSpaceOnUse" color-interpolation-filters="sRGB"><feFlood flood-opacity="0" result="BackgroundImageFix"/><feColorMatrix in="SourceAlpha" values="0 0 0 0 0 0 0 0 0 0 0 0 0 0 0 0 0 0 127 0" result="hardAlpha"/><feOffset dy="4"/><feGaussianBlur stdDeviation="2"/><feColorMatrix values="0 0 0 0 0 0 0 0 0 0 0 0 0 0 0 0 0 0 0.1 0"/><feBlend in2="BackgroundImageFix" result="effect1_dropShadow"/><feBlend in="SourceGraphic" in2="effect1_dropShadow" result="shape"/></filter><filter id="filter1_dd" x="132" y="5" width="82" height="82" filterUnits="userSpaceOnUse" color-interpolation-filters="sRGB"><feFlood flood-opacity="0" result="BackgroundImageFix"/><feColorMatrix in="SourceAlpha" values="0 0 0 0 0 0 0 0 0 0 0 0 0 0 0 0 0 0 127 0" result="hardAlpha"/><feOffset dy="4"/><feGaussianBlur stdDeviation="2"/><feColorMatrix values="0 0 0 0 1 0 0 0 0 1 0 0 0 0 1 0 0 0 0.25 0"/><feBlend in2="BackgroundImageFix" result="effect1_dropShadow"/><feColorMatrix in="SourceAlpha" values="0 0 0 0 0 0 0 0 0 0 0 0 0 0 0 0 0 0 127 0" result="hardAlpha"/><feOffset dy="4"/><feGaussianBlur stdDeviation="7.5"/><feColorMatrix values="0 0 0 0 1 0 0 0 0 1 0 0 0 0 1 0 0 0 0.25 0"/><feBlend in2="effect1_dropShadow" result="effect2_dropShadow"/><feBlend in="SourceGraphic" in2="effect2_dropShadow" result="shape"/></filter></defs></svg>
